X:1
T:Ach, wie werd ich
T:Luca Marenzio
T:Source : Tricinia---Johann-Jacob Gastoldi und anderer Autorn---Nürnberg---P.Kauffmann---1607. Editor : André Vierendeels (24/03/17).
T:Notes : Original clefs : C1, C2, F4 Editorial accidentals above the staff Text Middle German by Valentin Hauszmann 
T:Ach, wie werd ich
T:©
T:©
C:Luca Marenzio
Z:©
%%score [ 1 2 3 ]
L:1/8
Q:1/4=100
M:4/4
K:C
V:1 treble nm="Soprano" snm="S"
V:2 treble nm="Alto" snm="A"
V:3 bass nm="Bass" snm="B"
V:1
"^1)" B6 B2 | B4 B2 c2 | d6 c2 | d2 d2 e4 | e4 c2 c2 | c4 c2 B2 |"^-natural" A6 f2 | edcB AGFE | %8
w: Ach, wie|werd ich von|Cu- pi-|do be- dren-|get, disz hat|frau Ve- nus|ü- ber|mich _ _ _ _ _ _ _|
w: Ja, wenn|es nur ein|traum wer|o- der schat-|ten, so solt|es mir mein|Hertz nicht|so _ _ _ _ _ _ _|
 D2 D2 d4 | e8 :: G4 A3 A | B3 B c3 B | A2 G2 A4 | A4 z2 A2 | B2 B2 c2 d2 | e6 c2 | B2 A2 B4 | %17
w: _ ver hen-|get,|die ih- rem|Kind so vil hat|ein- ge reu-|met, dasz|mir von nichts als|ei- tel|Lie- be treu-|
w: _ ver- mat-|ten,|Ihm a- ber|sind ge- nom- men|al- le kräff-|te, A-|mor lieb- haff- tig|macht mir|solch ge- schäff-|
 A8 :| %18
w: met.|
w: te.|
V:2
"^2)""^1)" ^G6 G2 | ^G4 G2 A2 |"^-natural" B6 G2 | A2 B2 c4 | c4 A2 A2 | A4 A2 G2 | ^F6 A2 | %7
w: Ach, wie|werd ich von|Cu- pi-|do be- dren-|get, disz hat|frau Ve- nus|ü- ber|
w: Nun weisz|ich nicht der|plag- te|ab- zu- kom-|men, we- der|mit scha- den|o- der|
 G4 C2 c2- | c2 BA B4 | c8 :: z2 E2 ^F3 F | G3 G E3 G | ^F2 G2 F4 | ^F4 z2 D2 | G2 F2 E2 D2 | %15
w: mich ver- hen-||get,|die ih- rem|Kind so vil hat|ein- ge- reu-|met, dasz|mir von nichts als|
w: euch mit from-||men,|denn weil ich|zwi- schen Thür und|An- gel ste-|he, die|g'fahr ich für mir|
 C2 D2 E2 ^F2 | ^G2 A4 G2 | A8 :| %18
w: ei- tel Lie- be|treu- * *|met.|
w: au- gen schein- lich|se- * *|he.|
V:3
"^3)""^1)""^4)" E,6 E,2 | E,4 E,2 A,2 |"^-natural" G,6 E,2 | F,2 G,2 C,4 | C,4 F,2 F,2 | %5
w: Ach, wie|werd ich von|Cu- pi-|do be- dren-|get, disz hat|
w: O du,|Göt- tin Ve-|nus dein|Kind drumb straf-|fe, dasz es|
 F,4 F,2 G,2 | D,4 D,4 | E,4 F,4 | G,8 | C,8 :: z2 C,2 A,,3 A,, | G,,3 G,, C,3 G,, | D,2 E,2 D,4 | %13
w: frau Ve- nus|ï- ber|mich ver-|hen-|get,|die ih- rem|Kind so vil hat|ein- ge- reu-|
w: ab- lasz, und|mir doch|frie- de|schaf-|fe,|durch ei- ne,|die mir in mein|Hertz ge- sen-|
"^-natural" D,2 D,2 G,2 F,2 | E,2 D,2 C,2 B,,2 | A,,4 A,,4 | E,8 | A,,8 :| %18
w: met, dasz mir von|nichts als ei- tel|Lie- be|treu-|met.|
w: cket, von ih- rent-|wegn werd ich so|sehr ge-|kren-|cket.|

